icon-themes/sifr_svg/cmd/lc_paraspaceincrease.svg

<svg viewBox="0 0 24 24" xmlns="http://www.w3.org/2000/svg"><path d="m2 2v2h20v-2zm4.1640625 3-3.8828125 4.25c-.19095.19768-.28125.44055-.28125.75v.587891.412109h1c.484318 0 .669482-.297796 1-.683594l3-3.316406 3 3.316406c.339244.345695.544258.683594 1 .683594h1v-.412109-.587891c0-.354218-.0903-.55232-.28125-.75l-3.9394531-4.25zm6.8359375 1v2h9v-2zm-11 7v.412109.587891c0 .30945.0903.55232.28125.75l3.8828125 4.25h1.6152344l3.9394531-4.25c.19095-.19768.28125-.395782.28125-.75v-.587891-.412109h-1c-.455742 0-.660756.337899-1 .683594l-3 3.316406-3-3.316406c-.330518-.385798-.515682-.683594-1-.683594zm11 3v2h9v-2zm-11 4v2h20v-2z" fill="#555753"/></svg>

<svg xmlns="http://www.w3.org/2000/svg" viewBox="0 0 24 24">
  <path
     style="fill:#555753"
     d="M 2 2 L 2 4 L 22 4 L 22 2 L 2 2 z M 6.1640625 5 L 2.28125 9.25 C 2.0903 9.44768 2 9.69055 2 10 L 2 10.587891 L 2 11 L 3 11 C 3.484318 11 3.669482 10.702204 4 10.316406 L 7 7 L 10 10.316406 C 10.339244 10.662101 10.544258 11 11 11 L 12 11 L 12 10.587891 L 12 10 C 12 9.645782 11.9097 9.44768 11.71875 9.25 L 7.7792969 5 L 6.1640625 5 z M 13 6 L 13 8 L 22 8 L 22 6 L 13 6 z M 2 13 L 2 13.412109 L 2 14 C 2 14.30945 2.0903 14.55232 2.28125 14.75 L 6.1640625 19 L 7.7792969 19 L 11.71875 14.75 C 11.9097 14.55232 12 14.354218 12 14 L 12 13.412109 L 12 13 L 11 13 C 10.544258 13 10.339244 13.337899 10 13.683594 L 7 17 L 4 13.683594 C 3.669482 13.297796 3.484318 13 3 13 L 2 13 z M 13 16 L 13 18 L 22 18 L 22 16 L 13 16 z M 2 20 L 2 22 L 22 22 L 22 20 L 2 20 z "
     />
</svg>
